X:16237
T:Swinging Gate Reel
C:Andy De Jarlis
M:2/4
L:1/16
K:A
A4 A2E2|Bcde f4|efga bgbg|abc'd' e'c'a2|!
A4 A2E2|Bcde f4|efga bgbg|ac'bg a4|!
A4 A2E2|Bcde f4|efga bgbg|abc'd' e'c'a2|!
A4 A2E2|Bcde f4|efga bgbg|ac'bg a4:|!
|:aecB Aceg|fedc B2BA|GABG E2BG|ABcd e2fg|!
aecB Aceg|fedc B2BA|GABG EEBG|ABcd e2fg|!
aecB Aceg|fedc B2BA|GABG EEBG|ABcd e2fg|!
aecB Aceg|fedc B2BA|GABG EEBG|AcBG A2z2:|!
